X: 16
T: The Minstrel Boy (low)   [C]
R: march
Z: John Chambers <jc@trillian.mit.edu>
M: 2/4
L: 1/8
P: AA BA
K: C
"^A"[|] G !segno!||\
"C"C3 D | FE DC | E2 "(G)"G2 | "(Am)"c2 Bc |\
"F"A2 G2 | "C"E>F GE | "G7"D4 | "C  fine"C3 :|
"^B"[|] E ||\
"Am"c2 B2 | A2 Bc | "G"B3 A | G3 G |\
"Am"A3 E | E3 E | "F"A2 "G7"B2 | "C"c2 E!segno!D |]

% %sep 5 5 400
%%sep 2 1 500
%%sep 1 1 500

